X:161
T:Miss Dennett's Waltz
O:No 161 William Clarke of Feltwell
M:3/4
L:1/4
N:In MS in G, with 2/4 time signature. Very similar to Bury Waltz elsewhere in Clarke.
K:C
:(3g/a/g/fd|e2c|d/e/fg|g2e|(3g/a/g/fd|e2c|d/e/fB|c3:|
|:(3d/e/d/BG|e2c|d/e/ fa|g2e|(3d/e/d/BG|e2c|d/e/fB|c3:||

